!!!COM: Bach, Johann Sebastian
!!!OTL: Fuga
!!!OMV: 2
!!!SCT: BWV 547
!!!SCA: Thematisches-systematisches Verzeichnis der musikalischen Werke von Johann Sebastian Bach (Schmieder 1990)
**kern	**kern	**kern	**kern	**kern
*MM76	*MM76	*MM76	*MM76	*MM76
*k[]	*k[]	*k[]	*k[]	*k[]
*M2/2	*M2/2	*M2/2	*M2/2	*M2/2
*tb32	*tb32	*tb32	*tb32	*tb32
=1	=1	=1	=1	=1
1r	1r	1r	[4c	1r
.	.	.	16c]	.
.	.	.	16B	.
.	.	.	16c	.
.	.	.	16d	.
.	.	.	8e	.
.	.	.	8c	.
.	.	.	8A	.
.	.	.	8f#	.
=2	=2	=2	=2	=2
1r	1r	[4G	8g	1r
.	.	.	8d	.
.	.	16G]	8e	.
.	.	16E	.	.
.	.	16F	8B	.
.	.	16G	.	.
.	.	8A	8c	.
.	.	8F	16d	.
.	.	.	16e	.
.	.	8D	[4f	.
.	.	8B	.	.
=3	=3	=3	=3	=3
1r	[4C	8c	16f]	1r
.	.	.	16e	.
.	.	8G	16f	.
.	.	.	16g	.
.	16C]	8A	16f	.
.	16BB	.	16e	.
.	16C	8E	16d	.
.	16D	.	16c	.
.	8E	8G	8B	.
.	8C	16A	16c	.
.	.	16B	16d	.
.	8AA	4c	8e	.
.	8F#	.	[8a	.
=4	=4	=4	=4	=4
1r	8G	[4B	8a]	1r
.	8D	.	16g	.
.	.	.	16f#	.
.	8E	16B]	[4g	.
.	.	16c	.	.
.	8BB	16d	.	.
.	.	16e	.	.
.	8C	[4A	16g]	.
.	.	.	16g	.
.	16D	.	16f	.
.	16E	.	16e	.
.	[4F	8A]	16d	.
.	.	.	16c	.
.	.	16G	16B	.
.	.	16A	16c	.
=5	=5	=5	=5	=5
1r	8F]	4B	4d	[4g
.	16E	.	.	.
.	16D	.	.	.
.	8E	[4c	4r	16g]
.	.	.	.	16e
.	8C	.	.	16f
.	.	.	.	16g
.	16F	4c]	2r	8a
.	16D	.	.	.
.	16E	.	.	8f
.	16F	.	.	.
.	[4G	4B	.	8d
.	.	.	.	8b
=6	=6	=6	=6	=6
1r	16G]	4.A	1r	[4cc
.	16G	.	.	.
.	16F#	.	.	.
.	16E	.	.	.
.	4F#	.	.	16cc]
.	.	.	.	16cc
.	.	[8d	.	16b
.	.	.	.	16a
.	4.G	8d]	.	16b
.	.	.	.	16dd
.	.	8B	.	16ee
.	.	.	.	16ff
.	.	[4e	.	8gg
.	8c	.	.	8b-
=7	=7	=7	=7	=7
1r	4.F	16e]	1r	[4a
.	.	16e	.	.
.	.	16d	.	.
.	.	16c	.	.
.	.	[4d	.	16a]
.	.	.	.	16a
.	8D	.	.	16g
.	.	.	.	16f
.	4.E	8d]	.	16g
.	.	.	.	16b
.	.	8G	.	16cc
.	.	.	.	16dd
.	.	[4cc	.	8ee
.	8A	.	.	8g
=8	=8	=8	=8	=8
1r	4D	16cc]	2r	[4f
.	.	16cc	.	.
.	.	16b	.	.
.	.	16a	.	.
.	4G	4b	.	16f]
.	.	.	.	16f
.	.	.	.	16e
.	.	.	.	16d
.	4C	4cc	[4c	8e
.	.	.	.	16f
.	.	.	.	16g
.	4r	4r	16c]	[4a
.	.	.	16B	.
.	.	.	16c	.
.	.	.	16d	.
=9	=9	=9	=9	=9
1r	1r	2r	8e	16a]
.	.	.	.	16g
.	.	.	8c	16a
.	.	.	.	16b
.	.	.	8A	[4cc
.	.	.	8f#	.
.	.	[4G	2g	16cc]
.	.	.	.	16b
.	.	.	.	16cc
.	.	.	.	16dd
.	.	16G]	.	[4ee
.	.	16E	.	.
.	.	16F	.	.
.	.	16G	.	.
=10	=10	=10	=10	=10
1r	1r	8A	4.f	16ee]
.	.	.	.	16cc
.	.	8F	.	16dd
.	.	.	.	16ee
.	.	8D	.	[4ff
.	.	8B	8dd	.
.	.	4c	[4g	16ff]
.	.	.	.	16ee
.	.	.	.	16ff#
.	.	.	.	16gg
.	.	4c#	16g]	[4aa
.	.	.	16f#	.
.	.	.	16g	.
.	.	.	16a	.
=11	=11	=11	=11	=11
1r	1r	[2d	8b-	16aa]
.	.	.	.	16dd
.	.	.	8g	16ee
.	.	.	.	16ff
.	.	.	8e	[4gg
.	.	.	8cc#	.
.	.	4d_	[2dd	16gg]
.	.	.	.	16gg
.	.	.	.	16ff
.	.	.	.	16ee
.	.	16d]	.	8ff
.	.	16B	.	.
.	.	16c	.	8dd
.	.	16d	.	.
=12	=12	=12	=12	=12
1r	1r	8G#	16dd]	[4ee
.	.	.	16dd	.
.	.	8e	16cc	.
.	.	.	16b	.
.	.	16a	[4cc	8ee]
.	.	16A	.	.
.	.	16B	.	8aa
.	.	16c	.	.
.	.	8F#	16cc]	[4dd
.	.	.	16cc	.
.	.	8d	16b	.
.	.	.	16a	.
.	.	16g	[4b	8dd]
.	.	16G	.	.
.	.	16A	.	8gg
.	.	16B	.	.
=13	=13	=13	=13	=13
1r	2r	8E	16b]	[4cc
.	.	.	16b	.
.	.	8A	16a	.
.	.	.	16g	.
.	.	8F#	[4a	16cc]
.	.	.	.	16cc
.	.	8D	.	16b
.	.	.	.	16a
.	[4GG	8G	16a]	[4b
.	.	.	16a	.
.	.	8D	16g	.
.	.	.	16f#	.
.	16GG]	4E	4g	8b]
.	16EE	.	.	.
.	16FF	.	.	[8ee
.	16GG	.	.	.
=14	=14	=14	=14	=14
1r	8AA	4C	[4f	16ee]
.	.	.	.	16ee
.	8FF	.	.	16dd
.	.	.	.	16cc
.	8DD	4D	8.f]	16b
.	.	.	.	16a
.	8BB	.	.	[8g
.	.	.	16f	.
.	8C	2E	[4e	16g]
.	.	.	.	16g
.	8BB	.	.	16a
.	.	.	.	16b
.	8AA	.	16e]	[4cc
.	.	.	16e	.
.	8GG	.	16f	.
.	.	.	16g	.
=15	=15	=15	=15	=15
1r	4FF	4D	8a	4.cc]
.	.	.	8f	.
.	4GG	4G	8d	.
.	.	.	8g	8b
.	4C	4G	8e	[4cc
.	.	.	8c	.
.	4r	4r	[4g	16cc]
.	.	.	.	16b
.	.	.	.	16cc
.	.	.	.	16dd
=16	=16	=16	=16	=16
1r	1r	1r	16g]	8ee
.	.	.	16b	.
.	.	.	16a	8cc
.	.	.	16g	.
.	.	.	16f#	8a
.	.	.	16a	.
.	.	.	16g	8ff#
.	.	.	16f#	.
.	.	.	16e	8gg
.	.	.	16g	.
.	.	.	16f#	8dd
.	.	.	16a	.
.	.	.	[4g	8ee
.	.	.	.	8b
=17	=17	=17	=17	=17
1r	1r	1r	16g]	8cc
.	.	.	16e	.
.	.	.	16f	16dd
.	.	.	16g	16ee
.	.	.	16a	[4ff
.	.	.	16f	.
.	.	.	16g	.
.	.	.	16a	.
.	.	.	8d	16ff]
.	.	.	.	16aa
.	.	.	8b	16gg
.	.	.	.	16ff
.	.	.	[4cc	16ee
.	.	.	.	16gg
.	.	.	.	16ff
.	.	.	.	16ee
=18	=18	=18	=18	=18
1r	1r	[4G	16cc]	4dd
.	.	.	16cc	.
.	.	.	16b-	.
.	.	.	16a	.
.	.	16G]	[4b-	4gg
.	.	16E	.	.
.	.	16F	.	.
.	.	16G	.	.
.	.	8A	16b-]	4cc
.	.	.	16b-	.
.	.	8F	16a	.
.	.	.	16g	.
.	.	8D	16f	[4dd
.	.	.	16a	.
.	.	8B	16g	.
.	.	.	16f	.
=19	=19	=19	=19	=19
1r	[4C	8c	4e	16dd]
.	.	.	.	16dd
.	.	8G	.	16cc
.	.	.	.	16b
.	16C]	[4d	4f#	8a
.	16BB	.	.	.
.	16C	.	.	8dd
.	16D	.	.	.
.	8E	16d]	4g	4g
.	.	16f	.	.
.	8C	16e	.	.
.	.	16d	.	.
.	8AA	16c	4r	4r
.	.	16e	.	.
.	8F#	16d	.	.
.	.	16c	.	.
=20	=20	=20	=20	=20
1r	8G	16B	2r	1r
.	.	16d	.	.
.	8D	16e	.	.
.	.	16f#	.	.
.	8E	16g	.	.
.	.	16f#	.	.
.	8C#	16g	.	.
.	.	[16a	.	.
.	16D#	16a]	[4b	.
.	16BB	16a	.	.
.	16E	16g	.	.
.	16F#	16f#	.	.
.	8G	[4e	16b]	.
.	.	.	16g	.
.	8E	.	16a	.
.	.	.	16b	.
=21	=21	=21	=21	=21
1r	[4A	16e]	8cc	2r
.	.	16d	.	.
.	.	16c	8a	.
.	.	16B	.	.
.	16A]	8A	8f#	.
.	16c	.	.	.
.	16B	8f	[8dd	.
.	16A	.	.	.
.	16G#	8B	16dd]	[4ee
.	16E	.	16dd	.
.	16A	8r	16cc	.
.	16B	.	16b	.
.	8c	4r	[4a	16ee]
.	.	.	.	16cc
.	8A	.	.	16dd
.	.	.	.	16ee
=22	=22	=22	=22	=22
1r	16d	1r	4a]	8ff
.	16g	.	.	.
.	16f	.	.	8dd
.	16e	.	.	.
.	16d	.	4b	8b
.	16f	.	.	.
.	16e	.	.	8gg#
.	16d	.	.	.
.	[4c	.	16e	8aa
.	.	.	16g#	.
.	.	.	16a	8ee
.	.	.	16b	.
.	16c]	.	16cc	[4aa
.	16c	.	16ee	.
.	16B	.	16dd	.
.	16A	.	16cc	.
=23	=23	=23	=23	=23
1r	16B	1r	16dd	4aa_
.	16d	.	16b	.
.	16e	.	16cc	.
.	16f	.	16dd	.
.	8g	.	8.ee	16aa]
.	.	.	.	16ff
.	8B-	.	.	[8gg
.	.	.	16dd	.
.	[4A	.	16cc	8gg]
.	.	.	16e	.
.	.	.	16f	8cc
.	.	.	16g	.
.	16A]	.	16a	[4ff
.	16A	.	16cc	.
.	16G	.	16b	.
.	16F	.	16a	.
=24	=24	=24	=24	=24
1r	16G	1r	16b	4ff_
.	16B	.	16g	.
.	16c	.	16a	.
.	16d	.	16b	.
.	8e	.	8.cc	16ff]
.	.	.	.	16cc
.	8G	.	.	[8ee
.	.	.	16b-	.
.	[4F	.	16a	8ee]
.	.	.	16c	.
.	.	.	16d	8a
.	.	.	16e	.
.	16F]	.	16f	[4dd
.	16F	.	16a	.
.	16E	.	16g	.
.	16D	.	16f	.
=25	=25	=25	=25	=25
1r	16E	2r	16g	4dd_
.	16G	.	16e	.
.	16A	.	16f	.
.	16B	.	16g	.
.	8c	.	8.a	16dd]
.	.	.	.	16b
.	8E	.	.	[8cc
.	.	.	16g	.
.	2D	8r	[4f	16cc]
.	.	.	.	16cc
.	.	[8F	.	16b-
.	.	.	.	16a
.	.	16F]	16f]	4b-
.	.	16E	16g	.
.	.	16F	16f	.
.	.	16G	16e	.
=26	=26	=26	=26	=26
1r	[2C	8A	4f	16a
.	.	.	.	16cc
.	.	8F	.	16dd
.	.	.	.	16ee
.	.	8D	16r	8.ff
.	.	.	16dd	.
.	.	8B	[8g	.
.	.	.	.	16ff
.	8C]	8c	16g]	[4ee
.	.	.	16g	.
.	8BB	8G	16a	.
.	.	.	16b	.
.	4AA	4A	[4cc	16ee]
.	.	.	.	16dd
.	.	.	.	16ee
.	.	.	.	16ff#
=27	=27	=27	=27	=27
1r	4GG	4D	16cc]	[4gg
.	.	.	16cc	.
.	.	.	16b	.
.	.	.	16a	.
.	4r	4r	8b	16gg]
.	.	.	.	16aa
.	.	.	8r	16gg
.	.	.	.	16ff
.	2r	16r	2r	8ee
.	.	16c	.	.
.	.	16B	.	8gg#
.	.	16A	.	.
.	.	16G#	.	8bb
.	.	16B	.	.
.	.	16A	.	8dd
.	.	16G#	.	.
=28	=28	=28	=28	=28
1r	1r	16A	[4cc	16cc
.	.	16a	.	16dd
.	.	16g	.	16ee
.	.	16f	.	16ff
.	.	[4e	16cc]	4gg
.	.	.	16dd	.
.	.	.	16cc	.
.	.	.	16b-	.
.	.	16e]	8a	8ff
.	.	16f	.	.
.	.	16e	8cc#	4bb-
.	.	16d	.	.
.	.	16c#	8ee	.
.	.	16e	.	.
.	.	16d	8g	[8b-
.	.	16c#	.	.
=29	=29	=29	=29	=29
1r	1r	[4d	4.f	16b-]
.	.	.	.	16a
.	.	.	.	16b
.	.	.	.	16cc#
.	.	16d]	.	[4dd
.	.	16e	.	.
.	.	16d	8f#	.
.	.	16c	.	.
.	.	8B	8g	16dd]
.	.	.	.	16gg
.	.	8d	4a	16ff#
.	.	.	.	16ee
.	.	8f#	.	16dd
.	.	.	.	16ee
.	.	8A	8f#	16dd
.	.	.	.	16cc
=30	=30	=30	=30	=30
1r	[4G	16G	16g	4b
.	.	16A	16f#	.
.	.	16B	16g	.
.	.	16c	16a	.
.	16G]	[4d	4b	16r
.	16A	.	.	16dd
.	16G	.	.	16ee
.	16F	.	.	16ff
.	8E	8d]	16r	4gg
.	.	.	16a	.
.	8G	4c	16b	.
.	.	.	16cc	.
.	8B	.	16dd	[4ff
.	.	.	16b	.
.	8D	8B	16cc	.
.	.	.	16dd	.
=31	=31	=31	=31	=31
1r	8C	[2c	[4g	16ff]
.	.	.	.	16ff
.	8D	.	.	16ee
.	.	.	.	16dd
.	8E	.	16g]	[4cc
.	.	.	16b-	.
.	8C	.	16a	.
.	.	.	16g	.
.	[4F	16c]	[2a	2cc_
.	.	16c	.	.
.	.	16d	.	.
.	.	16e	.	.
.	16F]	[4f	.	.
.	16G	.	.	.
.	16F	.	.	.
.	16E	.	.	.
=32	=32	=32	=32	=32
1r	8D	16f]	4a_	4cc_
.	.	16g	.	.
.	8E	16f#	.	.
.	.	16e	.	.
.	8F#	[4d	4a_	16cc]
.	.	.	.	16cc
.	8D	.	.	16b
.	.	.	.	16a
.	[4G	2d_	16a]	[2b
.	.	.	16a	.
.	.	.	16g	.
.	.	.	16f#	.
.	16G]	.	[4g	.
.	16A	.	.	.
.	16G	.	.	.
.	16F#	.	.	.
=33	=33	=33	=33	=33
1r	8E	4d_	16g]	2b_
.	.	.	16a	.
.	8F#	.	16g#	.
.	.	.	16f#	.
.	8G#	16d]	[4e	.
.	.	16d	.	.
.	8E	16c	.	.
.	.	16B	.	.
.	[4A	[2c	2e_	16b]
.	.	.	.	16b
.	.	.	.	16a
.	.	.	.	16g#
.	16A]	.	.	[4a
.	16B-	.	.	.
.	16A	.	.	.
.	16G	.	.	.
=34	=34	=34	=34	=34
1r	2F	4c_	16e]	2a_
.	.	.	16g	.
.	.	.	16f	.
.	.	.	16e	.
.	.	16c]	4d	.
.	.	16c	.	.
.	.	16B	.	.
.	.	16A	.	.
.	4E	4B	[4e	16a]
.	.	.	.	16a
.	.	.	.	16g#
.	.	.	.	16f#
.	4r	4r	16e]	8g#
.	.	.	16f	.
.	.	.	16e	8r
.	.	.	16d	.
=35	=35	=35	=35	=35
1r	1r	1r	8c	[4ee
.	.	.	8e	.
.	.	.	8g#	16ee]
.	.	.	.	16cc
.	.	.	8B	16dd
.	.	.	.	16ee
.	.	.	8A	8ff
.	.	.	16B	8dd
.	.	.	16c	.
.	.	.	16d	8b
.	.	.	16f	.
.	.	.	16e	8gg#
.	.	.	16d	.
=36	=36	=36	=36	=36
1r	1r	[4A	16c#	8aa
.	.	.	16e	.
.	.	.	16f	16gg
.	.	.	16g	16ff
.	.	16A]	8a	16ee
.	.	16B-	.	16cc#
.	.	16A	8r	16dd
.	.	16G	.	16ee
.	.	8F	[4a	16a
.	.	.	.	16ff
.	.	8A	.	16ee
.	.	.	.	16dd
.	.	8c#	16a]	8ee
.	.	.	16f	.
.	.	8E	16g	8cc#
.	.	.	16a	.
=37	=37	=37	=37	=37
1r	2r	8D	8b-	[4dd
.	.	16E	8g	.
.	.	16F	.	.
.	.	16G	8e	16dd]
.	.	16B-	.	16cc#
.	.	16A	8cc#	16dd
.	.	16G	.	16ee
.	[4D	8F	8dd	4a
.	.	8E	16cc	.
.	.	.	16b-	.
.	16D]	8.F	16a	4r
.	16C#	.	16b-	.
.	16D	.	16a	.
.	16E	16G	16g	.
=38	=38	=38	=38	=38
1r	8F	4A	16f	[4dd
.	.	.	16g	.
.	8D	.	16f	.
.	.	.	16e	.
.	8BB	4r	8d	16dd]
.	.	.	.	16ff
.	8G#	.	8B	16ee
.	.	.	.	16dd
.	4A	16r	8e	8cc
.	.	16A	.	.
.	.	16B	8r	8ee
.	.	16c	.	.
.	4B	16d	4r	8gg#
.	.	16f	.	.
.	.	16e	.	8b
.	.	16d	.	.
=39	=39	=39	=39	=39
1r	4c	16e	1r	8a
.	.	16d	.	.
.	.	16e	.	[8aa
.	.	16f	.	.
.	4c#	16e	.	16aa]
.	.	16g	.	16bb-
.	.	16f	.	16aa
.	.	16e	.	16gg
.	16r	8d	.	8ff#
.	16d	.	.	.
.	16c	8r	.	8aa
.	16B-	.	.	.
.	16A	4r	.	8ccc
.	16B-	.	.	.
.	16A	.	.	8ee-
.	16G	.	.	.
=40	=40	=40	=40	=40
1r	16F#	1r	2r	8dd
.	16D	.	.	.
.	16G	.	.	16ee
.	16A	.	.	16ff#
.	16B-	.	.	2gg
.	16G	.	.	.
.	16A	.	.	.
.	16B-	.	.	.
.	16c	.	8r	.
.	16A	.	.	.
.	16B-	.	[8dd	.
.	16c	.	.	.
.	8d	.	16dd]	4ff#
.	.	.	16ee-	.
.	8D	.	16dd	.
.	.	.	16cc	.
=41	=41	=41	=41	=41
1r	16G	1r	8b	4gg
.	16AA	.	.	.
.	16BB	.	8dd	.
.	16C	.	.	.
.	16D	.	8ff	[4ff
.	16BB	.	.	.
.	16C	.	8a-	.
.	16D	.	.	.
.	16E-	.	8g	4ff]
.	16F	.	.	.
.	16E-	.	16a	.
.	16D	.	16b	.
.	16C	.	[4cc	4ee-
.	16D	.	.	.
.	16E-	.	.	.
.	16F	.	.	.
=42	=42	=42	=42	=42
1r	16G	8r	4cc]	4dd
.	16F	.	.	.
.	16G	[8g	.	.
.	16A-	.	.	.
.	[4B-	16g]	16b-	4dd-
.	.	16a-	16cc	.
.	.	16g	16b-	.
.	.	16f	16a-	.
.	16B-]	8e	8g	8cc
.	16c	.	.	.
.	16B-	8g	8r	8r
.	16A-	.	.	.
.	16G	8b-	4r	4r
.	16A-	.	.	.
.	16G	8d-	.	.
.	16F	.	.	.
=43	=43	=43	=43	=43
1r	16E	8c	1r	8r
.	16C	.	.	.
.	16F	16d	.	[8cc
.	16G	16e	.	.
.	16A-	2f	.	16cc]
.	16F	.	.	16a-
.	16G	.	.	16b-
.	16A-	.	.	16cc
.	16B-	.	.	8dd-
.	16G	.	.	.
.	16A-	.	.	8b-
.	16B-	.	.	.
.	16c	8e	.	8g
.	16d-	.	.	.
.	16c	8g	.	8ee
.	16B-	.	.	.
=44	=44	=44	=44	=44
1r	8A-	16c	8r	8ff
.	.	16d	.	.
.	8G	16e-	[8g	8b
.	.	16d	.	.
.	8A-	2c	16g]	4cc
.	.	.	16e-	.
.	8E-	.	16f	.
.	.	.	16g	.
.	16F	.	8a-	2dd
.	16D	.	.	.
.	16E-	.	8f	.
.	16F	.	.	.
.	16G	8B	8d	.
.	16F	.	.	.
.	16E-	8r	8b	.
.	16D	.	.	.
=45	=45	=45	=45	=45
1r	16C	8r	8cc	4ee-
.	16D	.	.	.
.	16E-	[8c	4.g	.
.	16F	.	.	.
.	2G	16c]	.	16dd
.	.	16B	.	16ff
.	.	16c	.	16ee-
.	.	16d	.	16dd
.	.	8e-	[4a-	16cc
.	.	.	.	16dd
.	.	8c	.	16b
.	.	.	.	16cc
.	[4F	8A-	16a-]	[4dd
.	.	.	16cc	.
.	.	8f	16b	.
.	.	.	16cc	.
=46	=46	=46	=46	=46
1r	16F]	4g	4b	4dd]
.	16A-	.	.	.
.	16G	.	.	.
.	16F	.	.	.
.	16E-	[4G	[4cc	[4ee-
.	16D	.	.	.
.	16C	.	.	.
.	16BB-	.	.	.
.	8AA-	4G]	16cc]	8.ee-]
.	.	.	16b	.
.	8GG	.	[8cc	.
.	.	.	.	16ee-
.	4AA-	4F	4cc_	16dd
.	.	.	.	16ee-
.	.	.	.	16ff
.	.	.	.	16dd
=47	=47	=47	=47	=47
2r	4GG	4G	16cc]	8ee-
.	.	.	8cc	.
.	.	.	.	[8dd
.	.	.	16a	.
.	4r	16r	4b	4dd]
.	.	16f	.	.
.	.	16g	.	.
.	.	16d	.	.
16r	4G	4e-	8r	4r
16ff#	.	.	.	.
[8gg	.	.	16r	.
.	.	.	16dd	.
4gg_	4r	8r	16ee-	[4ee-
.	.	.	16b	.
.	.	16r	[8cc	.
.	.	16g	.	.
=48	=48	=48	=48	=48
4gg_	16r	8.a	4cc_	4ee-_
.	16d	.	.	.
.	[8e-	.	.	.
.	.	16g	.	.
8.gg]	4e-]	4a	16cc]	4ee-]
.	.	.	16b	.
.	.	.	8cc	.
16ff#	.	.	.	.
4gg	[4G	16d	4g	4b
.	.	16B	.	.
.	.	16c	.	.
.	.	16d	.	.
4r	16G]	[4e	4r	4r
.	16E	.	.	.
.	16F	.	.	.
.	16G	.	.	.
=49	=49	=49	=49	=49
[2C	8A	16e]	1r	2r
.	.	16c	.	.
.	8F	16d	.	.
.	.	16e	.	.
.	8D	[4f	.	.
.	8B	.	.	.
8C]	16c	8f]	.	[4a
.	16B	.	.	.
8BB	16c	16e	.	.
.	16d	16d	.	.
8C	8e	8c	.	16a]
.	.	.	.	16cc
8D	16d	8r	.	16b
.	16c	.	.	16a
=50	=50	=50	=50	=50
4E	16B	1r	[4e	8g
.	16A	.	.	.
.	16G	.	.	8b
.	16F	.	.	.
4C	8E	.	16e]	8ee
.	.	.	16f	.
.	8r	.	16e	8g
.	.	.	16d	.
4AA	16r	.	8c	8f#
.	16d	.	.	.
.	16c	.	8e	8a
.	16B	.	.	.
4F#	16A	.	8a	[4dd
.	16c	.	.	.
.	16B	.	8c	.
.	16A	.	.	.
=51	=51	=51	=51	=51
[2G	1r	16B	8B	16dd]
.	.	16A	.	16ee
.	.	16B	8d	16dd
.	.	16c	.	16cc
.	.	16d	4g	8b
.	.	16B	.	.
.	.	16c	.	8dd
.	.	16d	.	.
8G]	.	16e	8r	8gg
.	.	16f	.	.
8E	.	16e	[8g	8b-
.	.	16d	.	.
8F	.	16c	16g]	8a
.	.	16d	16f	.
8G	.	16c	16e	8b-
.	.	16B-	16d	.
=52	=52	=52	=52	=52
4A	2r	16A	16c	[4cc
.	.	16c	16e	.
.	.	16d	16f	.
.	.	16e	16g	.
4F	.	8f	8a	16cc]
.	.	.	.	16cc
.	.	8d	16b	16dd
.	.	.	16cc	16ee
4D	16r	8B	[2dd	[2ff
.	16G	.	.	.
.	16F	8g	.	.
.	16E-	.	.	.
4B	16D	[4a-	.	.
.	16F	.	.	.
.	16E	.	.	.
.	16D	.	.	.
=53	=53	=53	=53	=53
[2c	16C	8.a-]	8dd]	4ff_
.	16E-	.	.	.
.	16F	.	[8cc	.
.	16G	16g	.	.
.	16A-	4f	16cc]	16ff]
.	16G	.	16b	16ff
.	16A	.	16cc	16ee
.	16B	.	16dd	16dd
8c]	4c	4e	4g	16ee
.	.	.	.	16gg
8B	.	.	.	16aa
.	.	.	.	16bb
8A	4r	16r	8r	8ccc
.	.	16e	.	.
8G	.	16f	[8cc	8ee
.	.	16g	.	.
=54	=54	=54	=54	=54
8F#	16r	8a	16cc]	[4dd
.	16e	.	16cc	.
8B	16d	8r	16b	.
.	16c	.	16a	.
8G#	8B	8r	4b	16dd]
.	.	.	.	16dd
8E	8e	8g#	.	16cc
.	.	.	.	16b
8A	4c	4e	4a	16cc
.	.	.	.	16ee
8G	.	.	.	16ff
.	.	.	.	16gg
8F	4r	16r	8r	8aa
.	.	16c	.	.
8E	.	16d	[8a	8cc
.	.	16e	.	.
=55	=55	=55	=55	=55
8D	16r	8g	16a]	[4b-
.	16c	.	16a	.
8G	16B-	8r	16g	.
.	16A	.	16f	.
8E	8G	8r	4g	16b-]
.	.	.	.	16b-
8C	8c	8e	.	16a
.	.	.	.	16g
8F	4A	4c	4f	16a
.	.	.	.	16cc
8E	.	.	.	16dd
.	.	.	.	16ee
8D	4r	16r	8r	8ff
.	.	16A	.	.
8C	.	16B	[8f	8a
.	.	16c	.	.
=56	=56	=56	=56	=56
8BB	16r	8d	16f]	[4g
.	16A	.	16f	.
8E	16G	8r	16e	.
.	16F	.	16d	.
8C#	8E	8r	[4e	16g]
.	.	.	.	16g
8AA	8A	8c#	.	16f
.	.	.	.	16e
4D	[4F	4A	16e]	[4f
.	.	.	16e	.
.	.	.	16d	.
.	.	.	16c#	.
8r	16F]	4r	[4d	16f]
.	16E	.	.	16g
8D	16F	.	.	16f
.	16G	.	.	16e
=57	=57	=57	=57	=57
4C	8A	2r	16d]	[4f#
.	.	.	16e	.
.	8F#	.	16d	.
.	.	.	16c#	.
8r	8D	.	8d	16f#]
.	.	.	.	16a
8C	8A#	.	[8d#	16g
.	.	.	.	16f#
4BB	16B	[4B	16d#]	[2g
.	16A	.	16f#	.
.	16G	.	16e	.
.	16F#	.	16d#	.
8r	[4E	16B]	[4e	.
.	.	16A	.	.
8BB	.	16B	.	.
.	.	16c	.	.
=58	=58	=58	=58	=58
4BB-	4.E]	8d-	16e]	4g]
.	.	.	16f	.
.	.	8B-	16e	.
.	.	.	16f	.
8r	.	8G	16g	[4cc
.	.	.	16a-	.
8BB-	8c	8e	16f	.
.	.	.	16g	.
4AA-	4F	16f	4a-	16cc]
.	.	16e	.	16cc
.	.	16f	.	16dd
.	.	16g	.	16ee
8r	4r	16a-	16r	[4ff
.	.	16f	16ee-	.
8AA-	.	16g	16dd	.
.	.	16a-	16cc	.
=59	=59	=59	=59	=59
4GG	8r	8d	8b	16ff]
.	.	.	.	16aa-
.	4G	8r	8r	16gg
.	.	.	.	16ff
4r	.	8e-	8cc	16ee-
.	.	.	.	16gg
.	8A	8r	8r	16ff
.	.	.	.	16ee-
[2G	4B	8f	8r	16dd
.	.	.	.	16ff
.	.	8r	4g	16ee-
.	.	.	.	16dd
.	4c	8e-	.	16cc
.	.	.	.	16ee-
.	.	8r	8f#	16dd
.	.	.	.	16cc
=60	=60	=60	=60	=60
8G]	8d	8r	16g	[4b
.	.	.	16a	.
8A	8r	[8d	16g	.
.	.	.	16f#	.
8G	4r	16d]	8g	16b]
.	.	16B	.	16dd
8F	.	16c	8r	16ee
.	.	16d	.	16ff
4E	8c	8e	8r	16gg
.	.	.	.	16cc
.	8r	8r	[8g	16b
.	.	.	.	16a
4G	4r	4r	16g]	16b
.	.	.	16e	16cc
.	.	.	16f	16dd
.	.	.	16g	16ee
=61	=61	=61	=61	=61
4B	8r	8d	8a-	16ff
.	.	.	.	16cc
.	[8d	8r	8g	16b
.	.	.	.	16a
4D	16d]	4r	4f	16b
.	16B	.	.	16dd
.	16c	.	.	16ee
.	16d	.	.	16ff
4C	8G	8r	16r	4ee
.	.	.	16dd-	.
.	4c	4g	16cc	.
.	.	.	16b-	.
4r	.	.	16a-	4ff
.	.	.	16cc	.
.	[8d	[8f	16b-	.
.	.	.	16a-	.
=62	=62	=62	=62	=62
[2C	8d]	8f]	16g	8gg
.	.	.	16b-	.
.	8c	8e-	16a-	4cc
.	.	.	16g	.
.	4r	4d	16f	.
.	.	.	16a-	.
.	.	.	16g	8b
.	.	.	16f	.
8C]	4G	16r	[4e	4cc
.	.	16d	.	.
8D	.	16c	.	.
.	.	16B	.	.
8C	8r	[4c	16e]	4r
.	.	.	16g	.
8BB-	8G	.	16a	.
.	.	.	16b-	.
=63	=63	=63	=63	=63
4AA	4F#	16c]	16cc	[1ee-
.	.	16B-	16g	.
.	.	16A	16f#	.
.	.	16G	16e	.
4C	8r	4A	16f#	.
.	.	.	16g	.
.	8F#	.	16a	.
.	.	.	16b	.
4E-	4G	16r	16cc	.
.	.	16d	16f	.
.	.	16c	16e-	.
.	.	16B	16d	.
4GG	4r	[4c	16e-	.
.	.	.	16e- 16g	.
.	.	.	16f 16a	.
.	.	.	16g 16b	.
=64	=64	=64	=64	=64
4FF#	4A	4c]	4cc	4ee-]
4r	4r	4r	4r	4r
4AA-	4F	4f	4b	4dd
4r	4r	4r	4r	4r
=65	=65	=65	=65	=65
4AA	4E-	4f#	4a	4cc
4r	4r	4r	4r	4r
4DD	4D	4f	4a-	4b
8r	8r	8r	8r	8r
8D	8d	8f	8b	16ff
.	.	.	.	32gg
.	.	.	.	32aa
=66	=66	=66	=66	=66
8E	8G	8e	8cc	8gg
8F	8A	8e	8a	8cc
8G	8E	8e	8g 8cc	16ee
.	.	.	.	16dd
8GG	[8G	8d	8g	16cc
.	.	.	.	16b
[2CC	8G]	8e	8g	8cc
.	[8c	8r	8r	8r
.	16c]	8g	8cc	8ee
.	16d	.	.	.
.	16c	8r	8r	8r
.	16B-	.	.	.
=67	=67	=67	=67	=67
1CC_	8A	8a	8cc	16ff
.	.	.	.	16dd
.	8c	8g	[8cc	16ee
.	.	.	.	16ff
.	8e	8r	16cc]	8gg
.	.	.	16dd	.
.	8G	8e	16cc	8r
.	.	.	16b-	.
.	4F	16f	8a	8r
.	.	16c	.	.
.	.	16B-	8cc	[8gg
.	.	16A	.	.
.	8r	8B-	8ee	16gg]
.	.	.	.	16ee
.	8E	8r	8g	16ff
.	.	.	.	16gg
=68	=68	=68	=68	=68
1CC_	16F	8r	4f	8aa
.	16E	.	.	.
.	16F	[8c	.	8ff
.	16G	.	.	.
.	4A-	16c]	8r	8dd
.	.	16B	.	.
.	.	16c	8ff	8bb
.	.	16d	.	.
.	4G	8e	4gg	16ccc
.	.	.	.	16bb-
.	.	8c	.	16aa
.	.	.	.	16gg
.	4r	8A	16r	[4ff
.	.	.	16ee	.
.	.	8f	16dd	.
.	.	.	16cc	.
=69	=69	=69	=69	=69
1CC_	16r	[2g	[4b-	16ff]
.	16f	.	.	16aa
.	16e	.	.	16gg
.	16d	.	.	16ff
.	[2c	.	16b-]	[2ee
.	.	.	16ee	.
.	.	.	16cc	.
.	.	.	16b-	.
.	.	16g]	[2a	.
.	.	16g	.	.
.	.	16f	.	.
.	.	16e	.	.
.	16c]	[4f	.	16ee]
.	16e	.	.	16gg
.	16d	.	.	16ff
.	16c	.	.	16ee
=70	=70	=70	=70	=70
1CC_	4B	4f_	16a]	2dd
.	.	.	16cc	.
.	.	.	16b	.
.	.	.	16a	.
.	[4B-	16f]	[4g	.
.	.	16f	.	.
.	.	16e	.	.
.	.	16d	.	.
.	16B-]	4e	4g]	[2cc
.	16d	.	.	.
.	16c	.	.	.
.	16B-	.	.	.
.	16A	8f	8a	.
.	16G	.	.	.
.	16F	8c	8g	.
.	16E	.	.	.
=71	=71	=71	=71	=71
1CC_	16F	8d	8f	8cc]
.	16D	.	.	.
.	16E	8r	8r	4b
.	16F	.	.	.
.	16G	8c	8e	.
.	16E	.	.	.
.	16F	8r	8r	8b-
.	16G	.	.	.
.	8A	8c	8f	16a
.	.	.	.	16cc
.	8F	8r	8r	16dd
.	.	.	.	16ee
.	8D	8r	8r	16ff
.	.	.	.	16dd
.	8B	8d	8g	16ee
.	.	.	.	16ff
=72	=72	=72	=72	=72
8CC]	8c	8e	8g	8ee 8cc
8r	8r	8r	8r	8r
4r	4r	4r	4r	4r
2r	2r	2r	2r	2r
==	==	==	==	==
*-	*-	*-	*-	*-
!!!ENC: Peter van Kranenburg (peter@musical-style-recognition.net)
!!!END: 2006-11-9
